public/img/icons/rover.svg

<svg width="64" height="64" viewBox="0 0 64 64" fill="none" xmlns="http://www.w3.org/2000/svg">
<path d="M56.8889 12.4445H64V7.11112H56.8889C53.4124 7.11112 50.4484 9.34062 49.3475 12.4445H38.2221V27.5556H24.8889V34.6668H19.5061V32.5353C19.5061 29.5513 17.6674 26.9981 15.0616 25.9429V21.8981C19.9097 20.7032 23.5061 16.3284 23.5061 11.1116V8H15.0616V4.4445H9.72838V8H1.28387V11.1115C1.28387 16.3282 4.88013 20.7031 9.72838 21.898V25.9428C7.12263 26.998 5.28387 29.5511 5.28387 32.5351V34.6997L0 38.2223V51.5556H2.66663C2.66663 55.9741 6.24813 59.5556 10.6666 59.5556C15.0848 59.5556 18.6666 55.9741 18.6666 51.5556H24C24 55.9741 27.5815 59.5556 32 59.5556C36.4181 59.5556 40 55.9741 40 51.5556H45.3334C45.3334 55.9741 48.9149 59.5556 53.3334 59.5556C57.7515 59.5556 61.3334 55.9741 61.3334 51.5556H64V38.2223L58.6666 34.6668H51.5555V27.5556H43.5555V17.7779H49.3475C50.4482 20.8818 53.4124 23.1112 56.8889 23.1112H64V17.7779H56.8889C55.4185 17.7779 54.2223 16.5816 54.2223 15.1112C54.2223 13.6407 55.4185 12.4445 56.8889 12.4445ZM10.6666 54.2223C9.19388 54.2223 8 53.0283 8 51.5556C8 50.083 9.194 48.889 10.6666 48.889C12.1392 48.889 13.3333 50.083 13.3333 51.5556C13.3333 53.0283 12.1394 54.2223 10.6666 54.2223ZM53.3334 48.8889C54.8061 48.8889 56 50.0829 56 51.5555C56 53.0281 54.806 54.2221 53.3334 54.2221C51.8607 54.2221 50.6668 53.0281 50.6668 51.5555C50.6668 50.0829 51.8606 48.8889 53.3334 48.8889ZM32 54.2223C30.5273 54.2223 29.3334 53.0283 29.3334 51.5556C29.3334 50.083 30.5274 48.889 32 48.889C33.4726 48.889 34.6666 50.083 34.6666 51.5556C34.6666 53.0283 33.4728 54.2223 32 54.2223ZM45.3334 34.6666V40H31.1111V34.6666H45.3334Z" fill="white"/>
</svg>

<svg xmlns="http://www.w3.org/2000/svg" width="64" height="64" fill="none" viewBox="0 0 64 64"><path fill="#fff" d="M56.889 12.445H64V7.11h-7.111c-3.477 0-6.44 2.23-7.542 5.334H38.223v15.11H24.89v7.112h-5.383v-2.132a7.11 7.11 0 0 0-4.444-6.592v-4.045c4.848-1.195 8.444-5.57 8.444-10.786V8h-8.444V4.444H9.728V8H1.284v3.111c0 5.217 3.596 9.592 8.444 10.787v4.045a7.11 7.11 0 0 0-4.444 6.592V34.7L0 38.222v13.334h2.667a8 8 0 1 0 16 0H24a8 8 0 1 0 16 0h5.333a8 8 0 1 0 16 0H64V38.222l-5.333-3.555h-7.111v-7.111h-8v-9.778h5.791c1.101 3.104 4.065 5.333 7.542 5.333H64v-5.333h-7.111a2.67 2.67 0 0 1-2.667-2.667 2.67 2.67 0 0 1 2.667-2.667M10.667 54.222a2.667 2.667 0 1 1 0-5.333 2.667 2.667 0 0 1 0 5.333m42.666-5.333a2.667 2.667 0 1 1 0 5.333 2.667 2.667 0 0 1 0-5.333M32 54.222a2.667 2.667 0 1 1 0-5.333 2.667 2.667 0 0 1 0 5.333m13.333-19.555V40H31.111v-5.333z"/></svg>
